X:1
T:Title
%%score { 1 | ( 2 3 ) }
L:1/8
Q:1/4=88
M:2/4
K:Eb
V:1 treble nm="Grand Piano"
V:2 bass 
V:3 bass 
V:1
 GF ED | EF G2 | [DF][DF] [A,DF][G,E] | [B,EG][A,DF] E2 | GF ED | EF G2 | [DF][DF] [A,DF][G,E] | %7
w: S.~W.~Straub * * *|||||||
 [B,EG][A,DF] [G,E]2 | [DB][FA] [EG][DF] | Ec B2 | [DB][FA] [EG][DF] | Ec B2 | B2 Bc | B G3 | %14
w: |||||||
 G2 GA | G E3 | [GB]2 [Ac][ce] | [Ac] [GB]2 [CFA] | [B,EG]2 [DF]2 | [G,E]4 |] %20
w: ||||||
V:2
 [E,B,E][E,A,B,] [E,G,B,][E,F,B,] | [E,G,][E,A,E] [E,B,E]2 | [B,,B,][B,,B,] B,,B,, | %3
 B,,B,, [E,G,]2 | [E,B,E][E,A,B,] [E,G,B,][E,F,B,] | [E,G,][E,A,E] [E,B,E]2 | %6
 [B,,B,][B,,B,] B,,B,, | B,,B,, E,2 | [B,,B,][B,,B,] [B,,B,][B,,A,] | [E,G,][E,A,E] [E,G,E]2 | %10
 [B,,B,][B,,B,] [B,,B,][B,,A,] | [E,G,][E,A,E] [E,G,E]2 | [E,G,E]2 [E,G,E][E,A,E] | %13
 [E,G,E] [E,B,E]3 | [E,B,E]2 [E,B,E][E,CE] | [E,B,E] [E,G,]3 | [E,B,]2 [E,E][E,E] | %17
 [E,E] [E,E]2 A,, | z2 A,2 | E,4 |] %20
V:3
 x4 | x4 | x4 | x4 | x4 | x4 | x4 | x4 | x4 | x4 | x4 | x4 | x4 | x4 | x4 | x4 | x4 | x4 | B,,4 | %19
 x4 |] %20

